usr/share/icons/biglinux-icons-material/scalable/apps/file-roller.svg

<?xml version="1.0" encoding="UTF-8" standalone="no"?>
<svg
   width="24"
   height="24"
   viewBox="0 0 6.349875 6.349875"
   version="1.1"
   id="svg389"
   sodipodi:docname="utilities-file-archiver.svg"
   xml:space="preserve"
   inkscape:version="1.2.2 (b0a8486541, 2022-12-01)"
   xmlns:inkscape="http://www.inkscape.org/namespaces/inkscape"
   xmlns:sodipodi="http://sodipodi.sourceforge.net/DTD/sodipodi-0.dtd"
   xmlns="http://www.w3.org/2000/svg"
   xmlns:svg="http://www.w3.org/2000/svg"><defs
     id="defs393"><radialGradient
       id="paint0_radial_1_518"
       cx="0"
       cy="0"
       r="1"
       gradientUnits="userSpaceOnUse"
       gradientTransform="matrix(-10.999959,21.999967,-21.999967,-10.999959,17.5,1)"><stop
         stop-color="#B1E0AA"
         id="stop518" /><stop
         offset="1"
         stop-color="#7ABC71"
         id="stop520" /></radialGradient></defs><sodipodi:namedview
     id="namedview391"
     pagecolor="#ffffff"
     bordercolor="#000000"
     borderopacity="0.25"
     inkscape:showpageshadow="2"
     inkscape:pageopacity="0.0"
     inkscape:pagecheckerboard="0"
     inkscape:deskcolor="#d1d1d1"
     showgrid="false"
     inkscape:zoom="6.625"
     inkscape:cx="10.566038"
     inkscape:cy="31.924528"
     inkscape:window-width="2560"
     inkscape:window-height="1000"
     inkscape:window-x="1680"
     inkscape:window-y="0"
     inkscape:window-maximized="1"
     inkscape:current-layer="svg389" /><g
     style="fill:none"
     id="g535"
     transform="scale(0.26457812)"><rect
       x="1"
       y="1"
       width="22"
       height="22"
       rx="6.5999999"
       fill="url(#paint0_radial_1_518)"
       id="rect512"
       style="fill:url(#paint0_radial_1_518)" /><path
       d="m 11,13.9941 v 3.2486 c 0,0.1385 0.1114,0.2499 0.2499,0.2499 h 1.4993 c 0.1385,0 0.2499,-0.1114 0.2499,-0.2499 v -3.2486 z m 0.4998,1.9991 h 0.9995 v 0.9995 h -0.9995 z"
       fill="#fafafa"
       id="path514" /><path
       d="M 12.0004,1 V 1.99955 H 13 V 1 Z m 0,0.99955 h -0.9995 v 0.99956 h 0.9995 z m 0,0.99956 V 3.99866 H 13 V 2.99911 Z m 0,0.99955 h -0.9995 v 0.99955 h 0.9995 z m 0,0.99955 V 5.99777 H 13 V 4.99821 Z m 0,0.99956 h -0.9995 v 0.99955 h 0.9995 z m 0,0.99955 V 7.99687 H 13 V 6.99732 Z m 0,0.99955 h -0.9995 v 0.99956 h 0.9995 z m 0,0.99956 V 9.99598 H 13 V 8.99643 Z m 0,0.99955 h -0.9995 v 0.99952 h 0.9995 z m 0,0.99952 v 0.9996 H 13 v -0.9996 z m 0,0.9996 h -0.9995 v 0.9995 h 0.9995 z m 0,0.9995 v 0.9996 H 13 v -0.9996 z"
       fill="#fafafa"
       id="path516" /></g></svg>

<svg xmlns="http://www.w3.org/2000/svg" xml:space="preserve" width="24" height="24" viewBox="0 0 6.35 6.35"><defs><radialGradient id="a" cx="0" cy="0" r="1" gradientTransform="rotate(116.565 8.441 5.908) scale(24.5967)" gradientUnits="userSpaceOnUse"><stop stop-color="#B1E0AA"/><stop offset="1" stop-color="#7ABC71"/></radialGradient></defs><g style="fill:none" transform="scale(.26458)"><rect width="22" height="22" x="1" y="1" fill="url(#a)" rx="6.6" style="fill:url(#a)"/><path fill="#fafafa" d="M11 13.994v3.249c0 .138.111.25.25.25h1.5a.25.25 0 0 0 .25-.25v-3.249zm.5 2h1v.999h-1z"/><path fill="#fafafa" d="M12 1v1h1V1Zm0 1h-1v1h1zm0 1v.999h1v-1Zm0 .999h-1v1h1zm0 1v.999h1v-1Zm0 .999h-1v1h1zm0 1v.999h1v-1Zm0 .999h-1v1h1zm0 1v.999h1v-1Zm0 .999h-1v1h1zm0 1v1h1v-1zm0 1h-1v.999h1zm0 .999v1h1v-1z"/></g></svg>
